assets/icons/qvision/closed_caption_disabled.svg

<svg width="24" height="24" viewBox="0 0 24 24" fill="none" xmlns="http://www.w3.org/2000/svg">
<g clip-path="url(#clip0_147_1397)">
<path d="M6.83001 4H19C20.1 4 21 4.9 21 6V18C21 18.05 20.99 18.1 20.98 18.16L17.6 14.78C17.84 14.59 18 14.32 18 14V13H16.5V13.5H16.33L14.5 11.67V10.5H16.5V11H18V10C18 9.45 17.55 9 17 9H14C13.45 9 13 9.45 13 10V10.17L6.83001 4ZM19.78 22.61L17.17 20H5.00001C3.89001 20 3.00001 19.1 3.00001 18V6C3.00001 5.95 3.02001 5.9 3.02001 5.85L1.39001 4.22L2.80001 2.81L21.18 21.19L19.78 22.61ZM11 13.83L10.17 13H9.50001V13.5H7.50001V10.5H7.67001L6.40001 9.22C6.16002 9.41 6.00001 9.68 6.00001 10V14C6.00001 14.55 6.45001 15 7.00001 15H10C10.55 15 11 14.55 11 14V13.83Z" fill="#323232"/>
</g>
<defs>
<clipPath id="clip0_147_1397">
<rect width="24" height="24" fill="white"/>
</clipPath>
</defs>
</svg>

<svg xmlns="http://www.w3.org/2000/svg" enable-background="new 0 0 24 24" height="24" viewBox="0 0 24 24" width="24"><rect fill="none" height="24" width="24"/><path d="M6.83,4H19c1.1,0,2,0.9,2,2v12c0,0.05-0.01,0.1-0.02,0.16l-3.38-3.38C17.84,14.59,18,14.32,18,14v-1h-1.5v0.5h-0.17 l-1.83-1.83V10.5h2V11H18v-1c0-0.55-0.45-1-1-1h-3c-0.55,0-1,0.45-1,1v0.17L6.83,4z M19.78,22.61L17.17,20H5c-1.11,0-2-0.9-2-2V6 c0-0.05,0.02-0.1,0.02-0.15L1.39,4.22l1.41-1.41l18.38,18.38L19.78,22.61z M11,13.83L10.17,13H9.5v0.5h-2v-3h0.17L6.4,9.22 C6.16,9.41,6,9.68,6,10v4c0,0.55,0.45,1,1,1h3c0.55,0,1-0.45,1-1V13.83z"/></svg>
